src/images/store.svg

<svg width="152" height="127" viewBox="0 0 152 127" fill="none" xmlns="http://www.w3.org/2000/svg">
<g clip-path="url(#clip0)">
<path d="M108.325 24.4811H95.7815V19.632H108.325C110.477 19.632 112.227 17.8874 112.227 15.743C112.227 13.5986 110.477 11.854 108.325 11.854H104.537V7.00488H108.325C113.159 7.00488 117.091 10.9247 117.091 15.743C117.091 20.5613 113.159 24.4811 108.325 24.4811Z" fill="#D68231"/>
<path d="M102.106 0.59668C106.767 0.59668 107.431 4.26936 107.123 6.03675C104.538 20.8376 91.587 32.0903 75.9998 32.0903C60.4127 32.0903 47.4621 20.8373 44.8769 6.03675C44.5682 4.26966 45.2326 0.59668 49.8941 0.59668C49.8938 0.59668 102.106 0.59668 102.106 0.59668Z" fill="#FFB819"/>
<path d="M142.67 37.0112H9.32825V124.17H142.67V37.0112Z" fill="#FFB819"/>
<path opacity="0.1" d="M23.3798 75.4526H9.32843V82.1937H23.3798V75.4526Z" fill="black"/>
<path opacity="0.1" d="M45.5721 55.7876H31.5207V62.5287H45.5721V55.7876Z" fill="black"/>
<path opacity="0.1" d="M88.8753 53.6606H74.8239V60.4017H88.8753V53.6606Z" fill="black"/>
<path opacity="0.1" d="M67.2091 41.2207H53.1577V47.9618H67.2091V41.2207Z" fill="black"/>
<path opacity="0.1" d="M142.671 63.2773H128.62V70.0181H142.671V63.2773Z" fill="black"/>
<path opacity="0.1" d="M140.353 104.699H126.302V111.44H140.353V104.699Z" fill="black"/>
<path opacity="0.1" d="M110.814 111.006H96.7622V117.747H110.814V111.006Z" fill="black"/>
<path opacity="0.1" d="M85.8627 91.9653H71.8113V98.7064H85.8627V91.9653Z" fill="black"/>
<path opacity="0.1" d="M29.1839 110.36H15.1325V117.101H29.1839V110.36Z" fill="black"/>
<path d="M6.27734 40.4023V44.7081C6.27734 50.1916 10.7367 54.637 16.2375 54.637C21.7383 54.637 26.1977 50.1916 26.1977 44.7081V40.4023H6.27734Z" fill="#00B3E3"/>
<path d="M26.198 40.4023V44.7081C26.198 50.1916 30.6574 54.637 36.1582 54.637C41.659 54.637 46.1183 50.1916 46.1183 44.7081V40.4023H26.198Z" fill="white"/>
<path d="M46.1187 40.4023V44.7081C46.1187 50.1916 50.5783 54.637 56.0788 54.637C61.5799 54.637 66.039 50.1916 66.039 44.7081V40.4023H46.1187Z" fill="#00B3E3"/>
<path d="M66.0397 40.4023V44.7081C66.0397 50.1916 70.499 54.637 75.9998 54.637C81.5006 54.637 85.96 50.1916 85.96 44.7081V40.4023H66.0397Z" fill="white"/>
<path d="M85.9603 40.4023V44.7081C85.9603 50.1916 90.4197 54.637 95.9205 54.637C101.422 54.637 105.881 50.1916 105.881 44.7081V40.4023H85.9603Z" fill="#00B3E3"/>
<path d="M105.881 40.4023V44.7081C105.881 50.1916 110.34 54.637 115.841 54.637C121.342 54.637 125.801 50.1916 125.801 44.7081V40.4023H105.881Z" fill="white"/>
<path d="M125.802 40.4023V44.7081C125.802 50.1916 130.261 54.637 135.762 54.637C141.263 54.637 145.722 50.1916 145.722 44.7081V40.4023H125.802Z" fill="#00B3E3"/>
<path d="M148.274 41.3575C148.274 43.1356 146.815 44.5901 145.032 44.5901H6.96829C5.18467 44.5901 3.72552 43.1353 3.72552 41.3575V33.7556C3.72552 31.9775 5.18496 30.5229 6.96829 30.5229H145.031C146.815 30.5229 148.274 31.9778 148.274 33.7556V41.3575H148.274Z" fill="#333E48"/>
<path d="M126.25 66.6465H82.4023V124.17H126.25V66.6465Z" fill="white"/>
<path d="M118.519 74.9092H90.1335V95.227H118.519V74.9092Z" fill="#00B3E3"/>
<path d="M111.059 81.3516H97.5952V86.2006H111.059V81.3516Z" fill="white"/>
<path d="M92.5592 107.141C93.898 107.141 94.9832 106.06 94.9832 104.725C94.9832 103.39 93.898 102.309 92.5592 102.309C91.2205 102.309 90.1353 103.39 90.1353 104.725C90.1353 106.06 91.2205 107.141 92.5592 107.141Z" fill="#333E48"/>
<path d="M152 125.098C152 125.816 151.411 126.404 150.69 126.404H1.30981C0.589297 126.404 0 125.816 0 125.098V120.424C0 119.706 0.589297 119.118 1.30981 119.118H150.69C151.411 119.118 152 119.706 152 120.424V125.098Z" fill="#333E48"/>
<path d="M132.402 119.117H76.2506V126.403H132.402V119.117Z" fill="#A4A9AD"/>
<path d="M71.7429 66.6465H19.986V102.307H71.7429V66.6465Z" fill="#333E48"/>
<path d="M52.6444 75.3208H39.0861L36.1108 85.612H55.6194L52.6444 75.3208Z" fill="#00B3E3"/>
<path d="M48.2961 66.6465H43.4318V75.3209H48.2961V66.6465Z" fill="white"/>
<path d="M27.1941 102.308V95.2274C27.1941 93.8883 28.283 92.8027 29.6264 92.8027C30.9697 92.8027 32.0587 93.8883 32.0587 95.2274V102.308H27.1941V102.308Z" fill="#00B3E3"/>
<path d="M59.6725 102.307V95.2269C59.6725 93.8878 60.7615 92.8022 62.1048 92.8022C63.4482 92.8022 64.5371 93.8878 64.5371 95.2269V102.307H59.6728V102.307H59.6725Z" fill="#00B3E3"/>
</g>
<defs>
<clipPath id="clip0">
<rect width="152" height="127" fill="white"/>
</clipPath>
</defs>
</svg>

<svg xmlns="http://www.w3.org/2000/svg" width="152" height="127" fill="none" viewBox="0 0 152 127"><g clip-path="url(#a)"><path fill="#D68231" d="M108.325 24.481H95.781v-4.849h12.544a3.9 3.9 0 0 0 3.902-3.889 3.9 3.9 0 0 0-3.902-3.889h-3.788v-4.85h3.788c4.834 0 8.766 3.92 8.766 8.739 0 4.818-3.932 8.738-8.766 8.738z"/><path fill="#FFB819" d="M102.106.597c4.661 0 5.325 3.672 5.017 5.44C104.538 20.837 91.587 32.09 76 32.09c-15.587 0-28.538-11.253-31.123-26.053-.309-1.767.356-5.44 5.017-5.44h52.212zm40.564 36.414H9.328v87.159H142.67V37.011z"/><path fill="#000" d="M23.38 75.453H9.328v6.74H23.38v-6.74zm22.192-19.665H31.521v6.74h14.051v-6.74zm43.303-2.128H74.824v6.742h14.051V53.66zM67.21 41.22H53.157v6.742h14.051V41.22zm75.461 22.057H128.62v6.741h14.051v-6.74zm-2.318 41.422h-14.051v6.741h14.051v-6.741zm-29.539 6.307H96.762v6.741h14.052v-6.741zM85.863 91.965H71.81v6.741h14.052v-6.74zM29.184 110.36H15.132v6.741h14.052v-6.741z" opacity=".1"/><path fill="#00B3E3" d="M6.277 40.402v4.306c0 5.484 4.46 9.929 9.96 9.929 5.501 0 9.96-4.445 9.96-9.929v-4.306H6.278z"/><path fill="#fff" d="M26.198 40.402v4.306c0 5.484 4.46 9.929 9.96 9.929 5.501 0 9.96-4.445 9.96-9.929v-4.306h-19.92z"/><path fill="#00B3E3" d="M46.119 40.402v4.306c0 5.484 4.46 9.929 9.96 9.929 5.5 0 9.96-4.445 9.96-9.929v-4.306h-19.92z"/><path fill="#fff" d="M66.04 40.402v4.306c0 5.484 4.459 9.929 9.96 9.929 5.5 0 9.96-4.445 9.96-9.929v-4.306H66.04z"/><path fill="#00B3E3" d="M85.96 40.402v4.306c0 5.484 4.46 9.929 9.96 9.929 5.502 0 9.961-4.445 9.961-9.929v-4.306h-19.92z"/><path fill="#fff" d="M105.881 40.402v4.306c0 5.484 4.459 9.929 9.96 9.929 5.501 0 9.96-4.445 9.96-9.929v-4.306h-19.92z"/><path fill="#00B3E3" d="M125.802 40.402v4.306c0 5.484 4.459 9.929 9.96 9.929 5.501 0 9.96-4.445 9.96-9.929v-4.306h-19.92z"/><path fill="#333E48" d="M148.274 41.358a3.247 3.247 0 0 1-3.242 3.232H6.968a3.247 3.247 0 0 1-3.242-3.233v-7.601a3.247 3.247 0 0 1 3.242-3.233h138.063a3.247 3.247 0 0 1 3.243 3.233v7.602z"/><path fill="#fff" d="M126.25 66.647H82.402v57.523h43.848V66.647z"/><path fill="#00B3E3" d="M118.519 74.91H90.133v20.317h28.386V74.909z"/><path fill="#fff" d="M111.059 81.352H97.595V86.2h13.464v-4.85z"/><path fill="#333E48" d="M92.56 107.141a2.42 2.42 0 0 0 2.423-2.416 2.42 2.42 0 0 0-2.424-2.416 2.42 2.42 0 0 0-2.424 2.416 2.42 2.42 0 0 0 2.424 2.416zM152 125.098c0 .718-.589 1.306-1.31 1.306H1.31c-.72 0-1.31-.588-1.31-1.306v-4.674c0-.718.59-1.306 1.31-1.306h149.38c.721 0 1.31.588 1.31 1.306v4.674z"/><path fill="#A4A9AD" d="M132.402 119.117H76.251v7.286h56.151v-7.286z"/><path fill="#333E48" d="M71.743 66.647H19.986v35.66h51.757v-35.66z"/><path fill="#00B3E3" d="M52.644 75.32H39.086l-2.975 10.292h19.508l-2.975-10.291z"/><path fill="#fff" d="M48.296 66.647h-4.864v8.674h4.864v-8.674z"/><path fill="#00B3E3" d="M27.194 102.308v-7.08a2.428 2.428 0 0 1 2.432-2.425 2.429 2.429 0 0 1 2.433 2.424v7.081h-4.865zm32.478-.001v-7.08a2.429 2.429 0 0 1 2.433-2.425 2.428 2.428 0 0 1 2.432 2.425v7.08h-4.864z"/></g><defs><clipPath id="a"><path fill="#fff" d="M0 0h152v127H0z"/></clipPath></defs></svg>
